svg/fluentui-system-icons/ic_fluent_ink_stroke_arrow_up_down_20_regular.svg

<svg width="20" height="20" viewBox="0 0 20 20" fill="none" xmlns="http://www.w3.org/2000/svg">
<path d="M3.00202 2.95549C3.02662 2.68044 3.26952 2.47742 3.54456 2.50202L6.58669 2.7741C8.7402 2.97856 10.8009 3.22451 12.491 3.50316C14.1559 3.77764 15.5318 4.09404 16.263 4.46343C16.4493 4.55752 16.6332 4.67387 16.77 4.8234C16.913 4.97966 17.0414 5.21801 16.9874 5.51033C16.9382 5.77655 16.7581 5.96233 16.5966 6.08401C16.4275 6.21138 16.2095 6.32116 15.9597 6.42023C14.9739 6.81123 13.0719 7.19381 10.0374 7.57377C7.89028 7.84262 6.59628 8.10489 5.93052 8.34149L5.91119 8.34842C5.99759 8.37891 6.09838 8.41093 6.21456 8.44391C6.55409 8.54027 6.98375 8.63364 7.48508 8.72179C8.48682 8.89794 9.74382 9.04795 11.0751 9.16198C12.0794 9.24799 13.1527 9.38416 14.0653 9.55688C14.4349 9.62683 14.7828 9.70364 15.0918 9.78689L14.2623 10.6164C14.1396 10.5902 14.0117 10.5645 13.8794 10.5394C13.0077 10.3745 11.9692 10.2422 10.9898 10.1583C9.64157 10.0428 8.35293 9.88972 7.31191 9.70667C6.79185 9.61523 6.32584 9.51498 5.94153 9.4059C5.57019 9.30051 5.22899 9.17456 4.99217 9.0137C4.87574 8.93462 4.7311 8.81191 4.65005 8.62902C4.55339 8.41089 4.57828 8.17872 4.69448 7.98712C4.79326 7.82423 4.94407 7.71111 5.08007 7.63056C5.22359 7.54555 5.39793 7.46951 5.59566 7.39924C6.37433 7.12251 7.76549 6.85045 9.91317 6.58153C12.9575 6.20033 14.7392 5.82855 15.591 5.49068C15.6971 5.44859 15.7818 5.40966 15.8484 5.3748C15.837 5.3687 15.8249 5.36243 15.8122 5.356C15.2384 5.06617 14.0127 4.76753 12.3284 4.48983C10.6697 4.21636 8.63435 3.97303 6.49354 3.76975L3.45548 3.49803C3.18044 3.47343 2.97742 3.23053 3.00202 2.95549ZM13.4393 11.4393C13.1696 11.7091 13.024 12.0561 13.0027 12.4091C12.5489 12.4749 12.0443 12.5396 11.4857 12.6035C9.3559 12.8469 8.04076 13.1584 7.297 13.4815C6.92322 13.6439 6.74155 13.7893 6.66297 13.8878C6.60336 13.9626 6.61073 13.9946 6.61887 14.0246C6.6362 14.0884 6.70117 14.205 6.87628 14.3655C7.04521 14.5204 7.2811 14.6838 7.5719 14.8483C8.15155 15.1762 8.89107 15.4762 9.59824 15.7078L12.2371 16.5221C12.5009 16.6035 12.6488 16.8834 12.5674 17.1473C12.486 17.4112 12.2061 17.5591 11.9422 17.4776L9.29117 16.6596C8.5459 16.4157 7.73769 16.091 7.07954 15.7186C6.75089 15.5327 6.44497 15.3267 6.20052 15.1026C5.96225 14.8842 5.74228 14.6122 5.65389 14.2868C5.55632 13.9278 5.63719 13.5703 5.88111 13.2644C6.10606 12.9823 6.45794 12.7558 6.89852 12.5643C7.78349 12.1798 9.22034 11.8559 11.3722 11.61C12.2502 11.5096 12.9765 11.4085 13.5701 11.3086L13.4393 11.4393ZM16.8536 10.1464C16.6583 9.95118 16.3417 9.95118 16.1464 10.1464L14.1464 12.1464C13.9512 12.3417 13.9512 12.6583 14.1464 12.8536C14.3417 13.0488 14.6583 13.0488 14.8536 12.8536L16 11.7071V17.2929L14.8536 16.1464C14.6583 15.9512 14.3417 15.9512 14.1464 16.1464C13.9512 16.3417 13.9512 16.6583 14.1464 16.8536L16.1464 18.8536C16.3417 19.0488 16.6583 19.0488 16.8536 18.8536L18.8536 16.8536C19.0488 16.6583 19.0488 16.3417 18.8536 16.1464C18.6583 15.9512 18.3417 15.9512 18.1464 16.1464L17 17.2929V11.7071L18.1464 12.8536C18.3417 13.0488 18.6583 13.0488 18.8536 12.8536C19.0488 12.6583 19.0488 12.3417 18.8536 12.1464L16.8536 10.1464Z" fill="#212121"/>
</svg>

<svg xmlns="http://www.w3.org/2000/svg" width="20" height="20"><path d="M3.002 2.955a.5.5 0 0 1 .543-.453l3.042.272c2.153.205 4.214.45 5.904.73 1.665.274 3.04.59 3.772.96.186.094.37.21.507.36a.795.795 0 0 1 .217.686c-.049.267-.229.452-.39.574a2.76 2.76 0 0 1-.637.336c-.986.391-2.888.774-5.923 1.154-2.147.269-3.44.53-4.106.767l-.02.007c.087.03.187.063.304.096.34.096.769.19 1.27.278 1.002.176 2.259.326 3.59.44 1.004.086 2.078.222 2.99.395.37.07.718.147 1.027.23l-.83.83a17.11 17.11 0 0 0-.383-.078 30 30 0 0 0-2.89-.38c-1.347-.116-2.636-.27-3.677-.452-.52-.092-.986-.192-1.37-.301-.372-.105-.713-.231-.95-.392a.938.938 0 0 1-.342-.385.684.684 0 0 1 .044-.642c.1-.163.25-.276.386-.356.144-.085.318-.161.516-.232.778-.276 2.17-.549 4.317-.817 3.044-.382 4.826-.753 5.678-1.091.106-.042.19-.081.257-.116a1.81 1.81 0 0 0-.036-.019c-.574-.29-1.8-.588-3.484-.866-1.658-.274-3.694-.517-5.834-.72l-3.039-.272a.5.5 0 0 1-.453-.543Zm10.437 8.484c-.27.27-.415.617-.436.97-.454.066-.959.13-1.517.194-2.13.244-3.445.555-4.189.879-.374.162-.555.307-.634.406-.06.075-.052.107-.044.137.017.063.082.18.257.34.17.155.405.319.696.483.58.328 1.32.628 2.026.86l2.64.814a.5.5 0 0 1-.296.956l-2.65-.818c-.746-.244-1.554-.569-2.212-.941a4.834 4.834 0 0 1-.88-.616c-.238-.219-.458-.49-.546-.816a1.125 1.125 0 0 1 .227-1.023c.225-.282.577-.508 1.018-.7.884-.384 2.321-.708 4.473-.954a42.2 42.2 0 0 0 2.198-.301l-.13.13Zm3.415-1.293a.5.5 0 0 0-.708 0l-2 2a.5.5 0 0 0 .708.708L16 11.707v5.586l-1.146-1.147a.5.5 0 0 0-.708.708l2 2a.5.5 0 0 0 .708 0l2-2a.5.5 0 0 0-.708-.708L17 17.293v-5.586l1.146 1.147a.5.5 0 0 0 .708-.708l-2-2Z"/></svg>
